src/assets/img/partners/tree_nation-hero.svg

<svg width="140" height="32" viewBox="0 0 140 32" fill="none" xmlns="http://www.w3.org/2000/svg">
<g clip-path="url(#clip0_3517_22887)">
<path d="M116.123 9.25842C115.488 9.25842 115.074 9.69073 115.074 10.3226C115.074 10.9145 115.488 11.3669 116.123 11.3669C116.758 11.3669 117.173 10.9145 117.173 10.3226C117.173 9.69073 116.758 9.25842 116.123 9.25842Z" fill="white"/>
<path d="M45.3001 11.0741H43.5762V19.3215C43.5762 21.9088 45.0996 23.4652 48.0196 23.4652V21.8291C46.1353 21.8291 45.3001 20.8979 45.3001 19.3215V15.118H48.0196V13.402H45.3001V11.0741Z" fill="white"/>
<path d="M49.3574 18.3372V23.2723H51.0613V18.3372C51.0613 16.129 52.3509 14.9251 54.7297 14.9251V13.2091C51.3419 13.2025 49.3574 15.118 49.3574 18.3372Z" fill="white"/>
<path d="M60.2695 13.2025C57.3362 13.2025 55.2715 15.3708 55.2715 18.3372C55.2715 21.277 57.3362 23.4719 60.2295 23.4719C62.588 23.4719 64.3523 22.0885 65.0071 20H63.1627C62.6883 21.1639 61.5792 21.9355 60.2295 21.9355C58.5256 21.9355 57.256 20.7716 57.0555 18.856H65.1671C65.1874 18.6565 65.2077 18.4237 65.2077 18.2241C65.2077 15.3775 63.2231 13.2025 60.2695 13.2025ZM63.4569 17.6189H57.089C57.3362 15.863 58.559 14.7257 60.2762 14.7257C62.0068 14.7257 63.2231 15.8962 63.4569 17.6189Z" fill="white"/>
<path d="M71.3862 13.2025C68.4533 13.2025 66.3887 15.3708 66.3887 18.3372C66.3887 21.277 68.4533 23.4719 71.3462 23.4719C73.705 23.4719 75.4693 22.0884 76.1241 20H74.2865C73.8121 21.1639 72.7031 21.9354 71.353 21.9354C69.649 21.9354 68.3794 20.7715 68.1794 18.856H76.2908C76.3111 18.6564 76.3308 18.4237 76.3308 18.2241C76.3247 15.3774 74.3401 13.2025 71.3862 13.2025ZM74.5739 17.6189H68.2059C68.4533 15.8629 69.6761 14.7256 71.393 14.7256C73.1241 14.7256 74.3401 15.8962 74.5739 17.6189Z" fill="white"/>
<path d="M79.4512 17.6323V18.743V18.8228H84.3023V18.743V17.6323V17.5591H79.4512V17.6323Z" fill="white"/>
<path d="M91.5538 13.2025C88.9544 13.2025 87.0098 15.3908 87.0098 18.3372V23.2724H88.7138V18.3372C88.7138 16.3419 89.9033 14.9252 91.547 14.9252C93.2307 14.9252 94.3802 16.4084 94.3802 18.3372V23.2724H96.1039V18.3372C96.1107 15.3974 94.1931 13.2025 91.5538 13.2025Z" fill="white"/>
<path d="M102.566 13.2025C99.712 13.2025 97.6074 15.3309 97.6074 18.3372C97.6074 21.2371 99.672 23.4719 102.325 23.4719C103.755 23.4719 105.004 22.7602 105.813 21.6162V23.2724H107.537V18.3372C107.537 15.4173 105.559 13.2025 102.566 13.2025ZM102.566 21.7359C100.701 21.7359 99.3514 20.2328 99.3514 18.3439C99.3514 16.5481 100.541 14.9318 102.566 14.9318C104.691 14.9318 105.82 16.5481 105.82 18.3439C105.813 20.2727 104.43 21.7359 102.566 21.7359Z" fill="white"/>
<path d="M110.931 11.0741H109.207V19.3215C109.207 21.9088 110.73 23.4652 113.65 23.4652V21.8291C111.766 21.8291 110.931 20.8979 110.931 19.3215V15.118H113.65V13.402H110.931V11.0741Z" fill="white"/>
<path d="M116.991 13.4021H115.248V23.2724H116.991V13.4021Z" fill="white"/>
<path d="M123.754 13.2025C120.8 13.2025 118.775 15.3708 118.775 18.3372C118.775 21.277 120.8 23.4719 123.754 23.4719C126.687 23.4719 128.711 21.2837 128.711 18.3372C128.711 15.3775 126.694 13.2025 123.754 13.2025ZM123.754 21.7359C121.83 21.7359 120.519 20.3126 120.519 18.3439C120.519 16.3485 121.83 14.9318 123.754 14.9318C125.658 14.9318 126.967 16.3552 126.967 18.3439C126.967 20.3126 125.658 21.7359 123.754 21.7359Z" fill="white"/>
<path d="M134.752 13.2025C132.153 13.2025 130.209 15.3908 130.209 18.3372V23.2724H131.912V18.3372C131.912 16.3419 133.102 14.9252 134.746 14.9252C136.429 14.9252 137.579 16.4084 137.579 18.3372V23.2724H139.303V18.3372C139.316 15.3974 137.392 13.2025 134.752 13.2025Z" fill="white"/>
<path d="M16.7164 0C7.9965 0 0.900391 7.06351 0.900391 15.7433C0.900391 23.3721 6.37952 29.7506 13.6294 31.1806C14.4311 31.3535 15.2531 31.4599 16.095 31.4932V23.166L11.8987 19.5743C11.4844 19.867 10.9833 20.0466 10.4354 20.0466C9.0389 20.0466 7.90296 18.9159 7.90296 17.5258C7.90296 16.1357 9.0389 15.005 10.4354 15.005C11.8319 15.005 12.9678 16.1357 12.9678 17.5258C12.9678 17.9315 12.8609 18.3039 12.6939 18.6432L16.095 21.5497V13.6348L14.5782 12.3379C14.1238 12.7569 13.5224 13.023 12.8542 13.023C11.4577 13.023 10.3218 11.8922 10.3218 10.5022C10.3218 9.11206 11.4577 7.98135 12.8542 7.98135C14.2508 7.98135 15.3867 9.11206 15.3867 10.5022C15.3867 10.7815 15.3332 11.0409 15.2463 11.2937L16.7097 12.5507L18.1931 11.307C18.1062 11.0542 18.0527 10.7882 18.0527 10.5088C18.0527 9.11871 19.1886 7.98806 20.5852 7.98806C21.9817 7.98806 23.1175 9.11871 23.1175 10.5088C23.1175 11.8989 21.9817 13.0296 20.5852 13.0296C19.917 13.0296 19.3156 12.7702 18.8679 12.3512L17.3311 13.6681V19.9468L20.9326 16.8607C20.7856 16.5414 20.7054 16.1956 20.7054 15.8231C20.7054 14.433 21.8414 13.3023 23.2379 13.3023C24.6343 13.3023 25.7703 14.433 25.7703 15.8231C25.7703 17.2132 24.6343 18.3439 23.2379 18.3439C22.6565 18.3439 22.1287 18.1444 21.701 17.8185L17.3311 21.5497V31.4932C18.173 31.4599 18.9948 31.3535 19.7967 31.1806C27.0465 29.7506 32.5256 23.3721 32.5256 15.7433C32.5256 7.06351 25.4362 0 16.7164 0ZM19.7967 29.9235V22.6804L22.142 20.6718C22.4961 20.7516 22.8636 20.7915 23.2379 20.7915C25.9975 20.7915 28.2359 18.5567 28.2359 15.8164C28.2359 13.8876 27.1267 12.2049 25.503 11.3801C25.5564 11.0941 25.5832 10.8015 25.5832 10.4955C25.5832 7.74862 23.3381 5.52046 20.5852 5.52046C19.0283 5.52046 17.6385 6.23212 16.7164 7.34289C15.8009 6.23212 14.4044 5.52046 12.8476 5.52046C10.0879 5.52046 7.84955 7.75526 7.84955 10.4955C7.84955 11.3801 8.08339 12.2182 8.49096 12.9365C6.69357 13.6947 5.43069 15.4639 5.43069 17.5258C5.43069 20.2727 7.67582 22.5009 10.4287 22.5009C10.7628 22.5009 11.0902 22.4676 11.4176 22.401L13.6227 24.29V29.9235C7.06776 28.5135 2.13653 22.6937 2.13653 15.7433C2.13653 7.74197 8.6781 1.23046 16.7164 1.23046C24.7547 1.23046 31.2962 7.74197 31.2962 15.7433C31.2962 22.6937 26.3583 28.5135 19.7967 29.9235Z" fill="white"/>
<path d="M11.5312 10.5155C11.5312 11.2338 12.1126 11.8191 12.8342 11.8191C13.5559 11.8191 14.1439 11.2405 14.1439 10.5221C14.1439 9.8038 13.5626 9.21851 12.8409 9.21851C12.1126 9.22515 11.5312 9.8038 11.5312 10.5155Z" fill="white"/>
<path d="M20.5862 11.8125C21.3058 11.8125 21.8891 11.2318 21.8891 10.5155C21.8891 9.79918 21.3058 9.21851 20.5862 9.21851C19.8665 9.21851 19.2832 9.79918 19.2832 10.5155C19.2832 11.2318 19.8665 11.8125 20.5862 11.8125Z" fill="white"/>
<path d="M10.4143 18.8626C11.1339 18.8626 11.7172 18.282 11.7172 17.5657C11.7172 16.8494 11.1339 16.2687 10.4143 16.2687C9.69471 16.2687 9.11133 16.8494 9.11133 17.5657C9.11133 18.282 9.69471 18.8626 10.4143 18.8626Z" fill="white"/>
<path d="M23.2444 17.1466C23.964 17.1466 24.5474 16.566 24.5474 15.8497C24.5474 15.1334 23.964 14.5527 23.2444 14.5527C22.5248 14.5527 21.9414 15.1334 21.9414 15.8497C21.9414 16.566 22.5248 17.1466 23.2444 17.1466Z" fill="white"/>
</g>
<defs>
<clipPath id="clip0_3517_22887">
<rect width="138.462" height="32" fill="white" transform="translate(0.853516)"/>
</clipPath>
</defs>
</svg>

<svg xmlns="http://www.w3.org/2000/svg" width="140" height="32" fill="none"><clipPath id="a"><path d="M.854 0h138.462v32H.854z"/></clipPath><g fill="#fff" clip-path="url(#a)"><path d="M116.123 9.258c-.635 0-1.049.433-1.049 1.065 0 .591.414 1.044 1.049 1.044s1.05-.453 1.05-1.044c0-.632-.415-1.065-1.05-1.065M45.3 11.074h-1.724v8.248c0 2.587 1.524 4.143 4.444 4.143V21.83c-1.885 0-2.72-.931-2.72-2.508v-4.203h2.72v-1.716H45.3zM49.357 18.337v4.935h1.704v-4.935c0-2.208 1.29-3.412 3.669-3.412V13.21c-3.388-.006-5.373 1.909-5.373 5.128M60.27 13.203c-2.934 0-4.999 2.168-4.999 5.134 0 2.94 2.065 5.135 4.959 5.135 2.358 0 4.122-1.384 4.777-3.472h-1.844c-.475 1.164-1.584 1.935-2.933 1.935-1.704 0-2.974-1.163-3.174-3.079h8.111c.02-.2.04-.432.04-.632 0-2.847-1.984-5.022-4.937-5.022m3.187 4.416h-6.368c.247-1.756 1.47-2.893 3.187-2.893 1.73 0 2.947 1.17 3.18 2.893M71.386 13.203c-2.933 0-4.997 2.168-4.997 5.134 0 2.94 2.064 5.135 4.957 5.135 2.359 0 4.123-1.384 4.778-3.472h-1.837c-.475 1.164-1.584 1.935-2.934 1.935-1.704 0-2.974-1.164-3.174-3.079h8.112c.02-.2.04-.432.04-.632-.006-2.847-1.99-5.022-4.945-5.022m3.188 4.416h-6.368c.247-1.756 1.47-2.893 3.187-2.893 1.731 0 2.947 1.17 3.18 2.893M79.451 17.632v1.191h4.851v-1.2640000000000002h-4.85zM91.554 13.203c-2.6 0-4.544 2.188-4.544 5.134v4.935h1.704v-4.935c0-1.995 1.19-3.412 2.833-3.412 1.684 0 2.833 1.483 2.833 3.412v4.935h1.724v-4.935c.007-2.94-1.91-5.135-4.55-5.135M102.566 13.203c-2.854 0-4.959 2.128-4.959 5.134 0 2.9 2.065 5.135 4.718 5.135 1.43 0 2.679-.712 3.488-1.856v1.656h1.724v-4.935c0-2.92-1.978-5.135-4.971-5.135m0 8.533c-1.865 0-3.215-1.503-3.215-3.392 0-1.796 1.19-3.412 3.215-3.412 2.125 0 3.254 1.616 3.254 3.412-.007 1.929-1.39 3.392-3.254 3.392M110.931 11.074h-1.724v8.248c0 2.587 1.523 4.143 4.443 4.143V21.83c-1.884 0-2.719-.931-2.719-2.508v-4.203h2.719v-1.716h-2.719zM116.991 13.402h-1.743v9.87h1.743zM123.754 13.203c-2.954 0-4.979 2.168-4.979 5.134 0 2.94 2.025 5.135 4.979 5.135 2.933 0 4.957-2.188 4.957-5.135 0-2.96-2.017-5.134-4.957-5.134m0 8.533c-1.924 0-3.235-1.423-3.235-3.392 0-1.995 1.311-3.412 3.235-3.412 1.904 0 3.213 1.423 3.213 3.412 0 1.969-1.309 3.392-3.213 3.392M134.752 13.203c-2.599 0-4.543 2.188-4.543 5.134v4.935h1.703v-4.935c0-1.995 1.19-3.412 2.834-3.412 1.683 0 2.833 1.483 2.833 3.412v4.935h1.724v-4.935c.013-2.94-1.911-5.135-4.551-5.135M16.716 0C7.996 0 .9 7.064.9 15.743c0 7.63 5.48 14.008 12.73 15.438.801.172 1.623.279 2.465.312v-8.327l-4.196-3.592a2.525 2.525 0 0 1-3.996-2.048c0-1.39 1.136-2.521 2.532-2.521s2.533 1.13 2.533 2.52c0 .406-.107.779-.274 1.118l3.401 2.907v-7.915l-1.517-1.297a2.54 2.54 0 0 1-1.724.685 2.53 2.53 0 0 1-2.532-2.52 2.53 2.53 0 0 1 2.532-2.522 2.53 2.53 0 0 1 2.533 2.521c0 .28-.054.539-.14.792l1.463 1.257 1.483-1.244a2.4 2.4 0 0 1-.14-.798 2.53 2.53 0 0 1 2.532-2.52 2.53 2.53 0 0 1 2.532 2.52 2.53 2.53 0 0 1-4.25 1.842l-1.536 1.317v6.279l3.602-3.086a2.46 2.46 0 0 1-.228-1.038 2.53 2.53 0 0 1 2.533-2.52c1.396 0 2.532 1.13 2.532 2.52a2.53 2.53 0 0 1-4.069 1.995l-4.37 3.732v9.943c.842-.033 1.664-.14 2.466-.312 7.25-1.43 12.729-7.809 12.729-15.438C32.526 7.063 25.436 0 16.716 0m3.08 29.924V22.68l2.346-2.008c.354.08.722.12 1.096.12 2.76 0 4.998-2.235 4.998-4.976a4.98 4.98 0 0 0-2.733-4.436q.08-.428.08-.885c0-2.746-2.245-4.975-4.998-4.975a5.02 5.02 0 0 0-3.869 1.823 5 5 0 0 0-3.868-1.823c-2.76 0-4.998 2.235-4.998 4.975 0 .885.233 1.723.641 2.441a4.99 4.99 0 0 0-3.06 4.59c0 2.747 2.245 4.975 4.998 4.975q.499 0 .989-.1l2.205 1.889v5.633c-6.555-1.41-11.486-7.23-11.486-14.18 0-8.001 6.541-14.513 14.58-14.513s14.58 6.512 14.58 14.513c0 6.95-4.939 12.77-11.5 14.18"/><path d="M11.531 10.516c0 .718.582 1.303 1.303 1.303.722 0 1.31-.579 1.31-1.297S13.563 9.22 12.84 9.22a1.307 1.307 0 0 0-1.31 1.296M20.586 11.813a1.3 1.3 0 0 0 1.303-1.298 1.3 1.3 0 0 0-1.303-1.296 1.3 1.3 0 0 0-1.303 1.296 1.3 1.3 0 0 0 1.303 1.297M10.414 18.863c.72 0 1.303-.581 1.303-1.297s-.583-1.297-1.303-1.297-1.303.58-1.303 1.297.584 1.297 1.303 1.297M23.244 17.147c.72 0 1.303-.581 1.303-1.297s-.583-1.297-1.303-1.297-1.303.58-1.303 1.297.584 1.297 1.303 1.297"/></g></svg>
